Hatter-kde/actions/24/office-chart-bar-percentage.svg

<?xml version="1.0" encoding="UTF-8"?>
<svg viewBox="0 0 24 24" xmlns="http://www.w3.org/2000/svg">
 <defs id="defs3051">
  <style id="current-color-scheme" type="text/css">.ColorScheme-Text {
        color:#363636;
      }</style>
 </defs>
 <path class="ColorScheme-Text" d="m4 4v6 1 5 1 1h-1v1h1v1h1v-1h14v-1h-3v-9h-1-3v9h-2v-13h1v-1h-1-4v14h-1v-1-1-3-1-1-1-3-0.0078125-0.99219-2h-1zm8 0v1h1v3h1v-4h-1-1zm4.5 0c-0.831 0-1.5 0.669-1.5 1.5v1c0 0.831 0.669 1.5 1.5 1.5s1.5-0.669 1.5-1.5v-1c0-0.831-0.669-1.5-1.5-1.5zm4 0c-0.831 0-1.5 0.669-1.5 1.5v1c0 0.831 0.669 1.5 1.5 1.5s1.5-0.669 1.5-1.5v-1c0-0.831-0.669-1.5-1.5-1.5zm-13.5 1h2v13h-2v-13zm9.5 0c0.277 0 0.5 0.223 0.5 0.5v1c0 0.277-0.223 0.5-0.5 0.5s-0.5-0.223-0.5-0.5v-1c0-0.277 0.223-0.5 0.5-0.5zm4 0c0.277 0 0.5 0.223 0.5 0.5v1c0 0.277-0.223 0.5-0.5 0.5s-0.5-0.223-0.5-0.5v-1c0-0.277 0.223-0.5 0.5-0.5zm-7.5 5h2v8h-2v-8z" fill="currentColor"/>
</svg>

<svg xmlns="http://www.w3.org/2000/svg" viewBox="0 0 24 24">
  <defs id="defs3051">
    <style type="text/css" id="current-color-scheme">
      .ColorScheme-Text {
        color:#363636;
      }
      </style>
  </defs>
 <path style="fill:currentColor;fill-opacity:1;stroke:none" 
     d="M 4 4 L 4 10 L 4 11 L 4 16 L 4 17 L 4 18 L 3 18 L 3 19 L 4 19 L 4 20 L 5 20 L 5 19 L 19 19 L 19 18 L 16 18 L 16 9 L 15 9 L 12 9 L 12 18 L 10 18 L 10 5 L 11 5 L 11 4 L 10 4 L 6 4 L 6 18 L 5 18 L 5 17 L 5 16 L 5 13 L 5 12 L 5 11 L 5 10 L 5 7 L 5 6.9921875 L 5 6 L 5 4 L 4 4 z M 12 4 L 12 5 L 13 5 L 13 8 L 14 8 L 14 4 L 13 4 L 12 4 z M 16.5 4 C 15.669 4 15 4.669 15 5.5 L 15 6.5 C 15 7.331 15.669 8 16.5 8 C 17.331 8 18 7.331 18 6.5 L 18 5.5 C 18 4.669 17.331 4 16.5 4 z M 20.5 4 C 19.669 4 19 4.669 19 5.5 L 19 6.5 C 19 7.331 19.669 8 20.5 8 C 21.331 8 22 7.331 22 6.5 L 22 5.5 C 22 4.669 21.331 4 20.5 4 z M 7 5 L 9 5 L 9 18 L 7 18 L 7 5 z M 16.5 5 C 16.777 5 17 5.223 17 5.5 L 17 6.5 C 17 6.777 16.777 7 16.5 7 C 16.223 7 16 6.777 16 6.5 L 16 5.5 C 16 5.223 16.223 5 16.5 5 z M 20.5 5 C 20.777 5 21 5.223 21 5.5 L 21 6.5 C 21 6.777 20.777 7 20.5 7 C 20.223 7 20 6.777 20 6.5 L 20 5.5 C 20 5.223 20.223 5 20.5 5 z M 13 10 L 15 10 L 15 18 L 13 18 L 13 10 z "
     class="ColorScheme-Text"
     />
</svg>
